X: 33254
T: Pullet, The
R: reel
M: 4/4
K: Bminor
fe|:dB (3BAB BdcB|ABAF ABde|fB (3BAB BcdB|ABde fefa|
b2B (3BAB BdcB|ABAF ABde|fB (3BAB BcdB|ABde f2fe:|
|:defg abaf|defg a2af|defg abaf|edef (3gfe af|
defg abaf|defg a2gf|gfga (3bag (3agf|edef g2fe:|

